!!!!SEGMENT: Mou2005-Per_lignum_salvi_facti_sumus.krn
!!!id: Mou2005
!!!AGN: Motet
!!!SCT: Lowinsky (1968)
!!!voices: 5
!!!COM: Jean Mouton
!!!OTL: Per lignum salvi facti sumus
**kern	**kern	**kern	**kern	**kern
*part5	*part4	*part3	*part2	*part1
*staff5	*staff4	*staff3	*staff2	*staff1
*I"Bassus	*I"Tenor II	*I"Tenor I	*I"Altus	*I"Superius
*I'B	*I'T. II	*I'T. I	*I'A	*I'S
*clefF4	*clefGv2	*clefGv2	*clefGv2	*clefG2
*k[]	*k[]	*k[]	*k[]	*k[]
*C:	*C:	*C:	*C:	*C:
*M2/1	*M2/1	*M2/1	*M2/1	*M2/1
*met(C|)	*met(C|)	*met(C|)	*met(C|)	*met(C|)
!!section: Prima pars: Per lignum salvi facti sumus
!!!OMD: Prima pars: Per lignum salvi facti sumus
=1	=1	=1	=1	=1
!	!	!	!LO:TX:a:t=Canon&colon; altus/tenor I at the lower fourth	!
0r	0r	0r	0r	1.g
.	.	.	.	4f
.	.	.	.	4e
=2	=2	=2	=2	=2
0r	1.d	0r	0r	2d
.	.	.	.	2e
.	.	.	.	2f
.	4c	.	.	2g
.	4B	.	.	.
=3	=3	=3	=3	=3
0r	2A	0r	0r	0a
.	2B	.	.	.
.	2c	.	.	.
.	2d	.	.	.
=4	=4	=4	=4	=4
0C	0e	0r	0r	1g
.	.	.	.	2.G
.	.	.	.	4A
=5	=5	=5	=5	=5
2GG	1d	0r	0r	2B
2AA	.	.	.	2c
2BB	1r	.	.	2d
2C	.	.	.	[2c
=6	=6	=6	=6	=6
0D	1d	0r	0r	2c]
.	.	.	.	4B
.	.	.	.	4A
.	1d	.	.	1B
=7	=7	=7	=7	=7
1C	1.e	1r	1.c	1c
[1E	.	[1G	.	1r
.	4d	.	4B	.
.	4c	.	4A	.
=8	=8	=8	=8	=8
2E]	2B	2G]	2G	0r
4D	2c	4F	2A	.
4C	.	4E	.	.
2BB	2G	2D	2B	.
2AA	[2A	2E	2c	.
=9	=9	=9	=9	=9
0D	2A]	2F	0d	1.a
.	2D	2G	.	.
.	1F	[1A	.	.
.	.	.	.	2b
=10	=10	=10	=10	=10
1AA	1E	1A]	1c	0cc
[1C	1E	1G	1r	.
=11	=11	=11	=11	=11
1C]	2.G	1r	0c	1cc
.	4F	.	.	.
1C	4E	[1G	.	[1g
.	4D	.	.	.
.	[2E	.	.	.
=12	=12	=12	=12	=12
1C	2E]	1G]	1c	2g]
.	4D	.	.	2a
.	4C	.	.	.
1GG	1G	1G	[1d	1b
=13	=13	=13	=13	=13
0D	1.F	0A	1d]	1a
.	.	.	1r	1d
.	[2A	.	.	.
=14	=14	=14	=14	=14
1D	4A]	1r	0d	2.a
.	4G	.	.	.
.	4F	.	.	.
.	4E	.	.	4g
1D	1F	[1A	.	2f
.	.	.	.	2d
=15	=15	=15	=15	=15
1AA	1E	1A]	1c	0e
1E	1r	1G	2B	.
.	.	.	2c	.
=16	=16	=16	=16	=16
[0D	2.A	2F	0d	1.f
.	.	2G	.	.
.	4G	.	.	.
.	4F	[1A	.	.
.	4E	.	.	.
.	2F	.	.	2d
=17	=17	=17	=17	=17
0D]	2D	1A]	1r	2.f
.	2.F	.	.	.
.	.	.	.	4g
.	.	1r	1d	1a
.	4G	.	.	.
.	4A	.	.	.
.	4B	.	.	.
=18	=18	=18	=18	=18
2r	2c	1A	2e	0r
1D	1F	.	1f	.
.	.	2B	.	.
4C	2G	[2c	2e	.
4BB	.	.	.	.
=19	=19	=19	=19	=19
2AA	2A	2c]	2c	0r
2GG	1D	2B	1d	.
2BB	.	2G	.	.
2AA	2E	[2A	[2c	.
=20	=20	=20	=20	=20
2FF	2F	2A]	2c]	0r
2GG	1D	1G	2B	.
1AA	.	.	1c	.
.	2C	2F#i	.	.
=21	=21	=21	=21	=21
1GG	1D	1G	1r	1d
1r	2r	1r	[1c	[1e
.	2C	.	.	.
=22	=22	=22	=22	=22
0C	1.E	0G	1c]	2e]
.	.	.	.	2f
.	.	.	[1c	1g
.	2E	.	.	.
=23	=23	=23	=23	=23
1C	2.E	1.G	2c]	1e
.	.	.	2d	.
.	4F	.	.	.
1C	2G	.	1e	2c
.	2C	2A	.	[2g
=24	=24	=24	=24	=24
4GG	1G	1B	1.d	4g]
4AA	.	.	.	4f
4BB	.	.	.	2d
4C	.	.	.	.
2D	2F	[1A	.	1a
2AA	[2E	.	2c	.
=25	=25	=25	=25	=25
1BB	2E]	2A]	1d	1r
.	2D	2G	.	.
2.AA	[1E	1A	1c	[1cc
4BB	.	.	.	.
=26	=26	=26	=26	=26
[0C	1E]	1G	1r	1cc]
.	2r	1r	1c	[1cc
.	[2E	.	.	.
=27	=27	=27	=27	=27
1C]	2E]	1G	1c	1cc]
.	2C	.	.	.
1r	1G	1G	[1d	1b
=28	=28	=28	=28	=28
1D	1F	0A	1d]	2a
.	.	.	.	2.f
2F	1r	.	1c	.
.	.	.	.	4g
2F	.	.	.	2a
=29	=29	=29	=29	=29
2G	1G	1G	2B	2d
2E	.	.	2c	2e
1D	2A	2F	1d	1f
.	2B	2G	.	.
=30	=30	=30	=30	=30
1r	1c	1A	1r	1e
[1D	[1A	1r	[1d	[1f
=31	=31	=31	=31	=31
2D]	1A]	1.A	2d]	2f]
2AA	.	.	2e	2e
2D	1F	.	1f	1d
2D	.	2B	.	.
=32	=32	=32	=32	=32
2.C	1G	1c	2e	2.e
.	.	.	2c	.
8BBL	.	.	.	4f
8AAJ	.	.	.	.
1GG	1r	2B	1d	4g
.	.	.	.	4a
.	.	2G	.	[2g
=33	=33	=33	=33	=33
1r	1c	1A	1c	2g]
.	.	.	.	2f#i
1G	2B	1G	1r	2g
.	[2d	.	.	2b
=34	=34	=34	=34	=34
2D	2d]	1r	0f	2.a
2.F	4c	.	.	.
.	4B	.	.	4g
.	1A	[1c	.	4a
4E	.	.	.	4g
4F	.	.	.	[2cc
4G	.	.	.	.
=35	=35	=35	=35	=35
1A	1r	1c]	0e	2cc]
.	.	.	.	4b
.	.	.	.	4a
1E	2r	[1B	.	2.g
.	[2G	.	.	.
.	.	.	.	4f
=36	=36	=36	=36	=36
1G	2G]	1B]	1r	2d
.	2E	.	.	2e
2.F	1A	1r	1f	1c
4E	.	.	.	.
=37	=37	=37	=37	=37
2C	2G	1c	2g	0r
1F	4F	.	1a	.
.	4G	.	.	.
.	4A	2d	.	.
.	4B	.	.	.
2C	2c	[2e	2g	.
=38	=38	=38	=38	=38
1D	2.A	2e]	1f	1r
.	.	2d	.	.
.	4G	.	.	.
1AA	1A	1c	1e	2r
.	.	.	.	2e
=39	=39	=39	=39	=39
0r	1G	1B	2r	1g
.	.	.	1d	.
.	2D	2r	.	2.f
.	[2F	[2A	2c	.
.	.	.	.	4e
=40	=40	=40	=40	=40
0r	2F]	2A]	2d	2d
.	2E	2G	2e	2c#i
.	1D	2A	1f	1d
.	.	2B	.	.
=41	=41	=41	=41	=41
1r	1C	1c	2e	2r
.	.	.	2c	2.g
1GG	1G	2B	1d	.
.	.	.	.	4a
.	.	2G	.	2b
=42	=42	=42	=42	=42
1D	1F	1A	1d	2.a
.	.	.	.	4b
2.AA	[1E	1A	1c	1cc
4BB	.	.	.	.
=43	=43	=43	=43	=43
1C	2E]	1G	1r	1r
.	2D	.	.	.
1r	1C	1r	[1c	[1g
=44	=44	=44	=44	=44
1.C	1.E	1.G	2c]	2g]
.	.	.	2c	2g
.	.	.	1c	1cc
2C	2E	2G	.	.
=45	=45	=45	=45	=45
1GG	1D	1G	0d	1b
1D	1F	[1A	.	[1a
=46	=46	=46	=46	=46
2.AA	0E	1A]	1c	2a]
.	.	.	.	4g
4BB	.	.	.	4f
1C	.	1G	1r	1e
=47	=47	=47	=47	=47
1r	1r	1r	1.c	1.g
[1C	[1E	[1G	.	.
.	.	.	2c	2g
=48	=48	=48	=48	=48
2C]	2E]	2G]	1c	1cc
2C	2E	2G	.	.
1GG	1D	1G	[1d	1b
=49	=49	=49	=49	=49
1D	1F	0A	1d]	2.a
.	.	.	.	4b
1AA	[1E	.	1c	2cc
.	.	.	.	2a
=50	=50	=50	=50	=50
1r	1E]	1G	2r	1b
.	.	.	2B	.
1F	1r	2r	1c	1a
.	.	2F	.	.
=51	=51	=51	=51	=51
2E	2r	1G	1e	1g
2C	2c	.	.	.
1G	2B	1B	1d	1g
.	2G	.	.	.
=52	=52	=52	=52	=52
1D	1d	1A	1r	1a
1D	[1A	1r	[1f	[1a
=53	=53	=53	=53	=53
2F	1A]	0c	1f]	2a]
2F	.	.	.	2f
4C	2r	.	1e	1g
4D	.	.	.	.
4E	[2G	.	.	.
4F	.	.	.	.
=54	=54	=54	=54	=54
1G	4G]	1B	1d	1g
.	4A	.	.	.
.	2B	.	.	.
2r	2c	1A	2e	1a
2F	2A	.	2f	.
=55	=55	=55	=55	=55
2E	2G	2B	0g	1r
2C	2c	2c	.	.
1G	2B	[1d	.	1d
.	2G	.	.	.
=56	=56	=56	=56	=56
1D	2A	1d]	1r	2.f
.	2B	.	.	.
.	.	.	.	4g
1D	1A	1r	[1f	[1a
=57	=57	=57	=57	=57
2F	1A	0c	1f]	2a]
2F	.	.	.	2f
4C	2r	.	1e	1g
4D	.	.	.	.
4E	[2G	.	.	.
4F	.	.	.	.
=58	=58	=58	=58	=58
1G	4G]	1B	1d	1g
.	4A	.	.	.
.	2B	.	.	.
2r	2c	1A	2e	1a
2F	2A	.	2f	.
=59	=59	=59	=59	=59
2E	1G	2B	0g	2r
2C	.	2c	.	2cc
1G	1B	[1d	.	2b
.	.	.	.	2g
=60	=60	=60	=60	=60
1D	1A	1d]	1f	2.a
.	.	.	.	4f
1r	2r	1c	2e	2g
.	[2A	.	2c	2a
=61	=61	=61	=61	=61
0r	4A]	2B	1d	1b
.	4G	.	.	.
.	1G	2G	.	.
.	.	1A	1c	1cc
.	2F#i	.	.	.
=62	=62	=62	=62	=62
1.G	1G	[0Gl	1r	1.b
.	1B	.	1d	.
2F	.	.	.	2a
=63	=63	=63	=63	=63
2E	1B	0G_	1e	[0gl
2D	.	.	.	.
1C	1c	.	1e	.
=64	=64	=64	=64	=64
00GGl	00Bl	00G]	00dl	00g]
==	==	==	==	==
*-	*-	*-	*-	*-
!!!system-decoration: [*]
!!!RDF**kern: i = editorial accidental
!!!RDF**kern: l = terminal long
!!!ENC: Benjamin Ory
!!!END: 2021/4/20
!!!EED: Benjamin Ory
!!!EEV: 2021/05/02
!!!YEC: Copyright 2021 Benjamin Ory, All Rights Reserved
!!!ONB: Translated from MusicXML on 2021/05/02
